static/img/svg/data.svg

<svg xmlns="http://www.w3.org/2000/svg" width="24" height="24"><path d="M4 6v12c0 2.168 3.663 4 8 4s8-1.832 8-4V6c0-2.168-3.663-4-8-4S4 3.832 4 6zm14 11.994c-.069.499-2.309 2.006-6 2.006s-5.931-1.507-6-2v-1.393C7.479 17.454 9.637 18 12 18s4.521-.546 6-1.393v1.387zm0-4c-.069.499-2.309 2.006-6 2.006s-5.931-1.507-6-2v-1.393C7.479 13.454 9.637 14 12 14s4.521-.546 6-1.393v1.387zm0-4c-.069.499-2.309 2.006-6 2.006s-5.931-1.507-6-2V8.607C7.479 9.454 9.637 10 12 10s4.521-.546 6-1.393v1.387zm0-4C17.931 6.493 15.691 8 12 8S6.069 6.493 6 6.006C6.069 5.507 8.309 4 12 4s5.931 1.507 6 1.994z"/></svg>

<?xml version="1.0" encoding="utf-8"?>
<!-- Generator: Adobe Illustrator 16.0.0, SVG Export Plug-In . SVG Version: 6.00 Build 0)  -->
<!DOCTYPE svg PUBLIC "-//W3C//DTD SVG 1.1//EN" "http://www.w3.org/Graphics/SVG/1.1/DTD/svg11.dtd">
<svg version="1.1" id="Layer_1" xmlns="http://www.w3.org/2000/svg" xmlns:xlink="http://www.w3.org/1999/xlink" x="0px" y="0px"
	 width="24px" height="24px" viewBox="0 0 24 24" enable-background="new 0 0 24 24" xml:space="preserve">
<g>
	<path d="M4,6v12c0,2.168,3.663,4,8,4s8-1.832,8-4V6c0-2.168-3.663-4-8-4S4,3.832,4,6z M18,17.994C17.931,18.493,15.691,20,12,20
		s-5.931-1.507-6-2v-1.393C7.479,17.454,9.637,18,12,18s4.521-0.546,6-1.393V17.994z M18,13.994C17.931,14.493,15.691,16,12,16
		s-5.931-1.507-6-2v-1.393C7.479,13.454,9.637,14,12,14s4.521-0.546,6-1.393V13.994z M18,9.994C17.931,10.493,15.691,12,12,12
		s-5.931-1.507-6-2V8.607C7.479,9.454,9.637,10,12,10s4.521-0.546,6-1.393V9.994z M18,5.994C17.931,6.493,15.691,8,12,8
		S6.069,6.493,6,6.006C6.069,5.507,8.309,4,12,4S17.931,5.507,18,5.994z"/>
</g>
</svg>
